X: 1
T: Michael Robinson
C: David A. Kaynor (March 2017)
%D:2017
R: jig
Z: 2017 John Chambers <jc:trillian.mit.edu>
S: https://www.natunelist.net/michael-robinson/
M: 6/8
L: 1/8
K: Dm
V: 1 gch=0 staves=2	% Connect bar lines between voices
V: 2 gch=1
# - - - - - - - - - -
V: 1
"A"|:\
"Dm"fed d2A | d3 def | "C"ecA A2c | "Am"e3 efg |\
"Dm"fed d2A | d3 def | "C"ecA ABc |1 "Dm"d3 d2"Am"e :|2 "Dm"d3 "A"e^fg |][K:D]
"B1"[|\
"D"a2f def | "G"g2B "Em"e2A | "A"cde    e2A | "D"f3 efg |\
"D"a2f def | "G"g2B  "A"e2A | "G"Bcd "A"d2c | "D"d3 "A"efg |]
"B2"[|\
"D"a2f def | "G"g2B "Em"e2A | "A"cde    e2A | "D"fef gab |\
"D"a2f def | "G"g2B  "A"e2A | "G"Bcd "A"d2c | "D"d3- d3 |]
# - - - - - - - - - -
V: 2
|:\
"Dm"d2A F2D | A3 A2d | "C"cGE E2G | "Am"c3 cde |\
"Dm"d2A F2D | A3 A2d | "C"cGE EGA |1 "Dm"A3 A2"Am"c :|2 "Dm"A3 "A"^cde |][K:D]
[|\
"D"f2d Acd | "G"d2G "Em"B2E | "A"ABc    c2E | "D"d3 cde |\
"D"f2A Acd | "G"d2G  "A"A2E | "G"GAB "A"A2G | "D"[A3F3] "A"c2e |]
[|\
"D"f2d Acd | "G"d2G "Em"B2E | "A"ABc    c2E | "D"dcd efg |
"D"f2d Acd | "G"d2G  "A"A2E | "G"G2B "A"A2A | "D"[A3F3]- [A3F3] |]
